X:1
T:Those Brown Eyes
M:3/4
L:1/4
K:F
 C| F G2| A2 c| d2 c| G3-| G z C| E F2| G2 B| A2 G| F3-| F2 z| F2 G|\
 A c2| d2 c| G3-| G z C| E2 F| G2 B| A2 G| F3-| F2 z| f2 f| f2 f| f- e d|\
 c3-| c2 z| f2 f| f2 f| f- e d| c3| F2 G| A2 c| d2 c| G3-| G3| E2 F|\
 G2 B| A2 G| F3-| F2||
